; generated by Slic3r 1.2.9 on 2015-08-16 at 13:05:46

; external perimeters extrusion width = 0.40mm
; perimeters extrusion width = 0.48mm
; infill extrusion width = 0.48mm
; solid infill extrusion width = 0.48mm
; top infill extrusion width = 0.48mm
; support material extrusion width = 0.40mm

M107
M104 S215 ; set temperature
G28 ; home all axes
G1 Z5 F5000 ; lift nozzle

M109 S215 ; wait for temperature to be reached
G21 ; set units to millimeters
G90 ; use absolute coordinates
M82 ; use absolute distances for extrusion
G92 E0
G1 Z0.330 F7200.000
G1 E-2.00000 F2400.00000
G92 E0
G1 Z2.330 F7200.000
G1 X0.000 Y-26.466 F7200.000
G1 Z0.330 F7200.000
G1 E2.00000 F2400.00000
G1 X9.744 Y-26.466 E2.91917 F1350.000
G1 X11.511 Y-26.433 E3.08585 F1350.000
G1 X15.593 Y-25.944 E3.47366
G1 X19.504 Y-24.677 E3.86148
G1 X23.096 Y-22.677 E4.24929
G1 X26.235 Y-20.021 E4.63710
G1 X28.800 Y-16.809 E5.02491
G1 X30.697 Y-13.161 E5.41272
G1 X31.854 Y-9.216 E5.80053
G1 X32.227 Y-5.284 E6.17307
G1 X32.230 Y2.624 E6.91902
G1 X32.161 Y4.430 E7.08949
G1 X31.528 Y8.492 E7.47730
G1 X29.951 Y12.705 E7.90165
G1 X28.946 Y14.710 E8.11313
G1 X26.756 Y18.189 E8.50094
G1 X23.935 Y21.179 E8.88876
G1 X20.589 Y23.569 E9.27657
G1 X16.844 Y25.266 E9.66438
G1 X14.738 Y25.865 E9.87096
G1 X14.441 Y25.933 E9.89968
G1 X9.716 Y26.466 E10.34821
G1 X-10.055 Y26.466 E12.21321
G1 X-11.746 Y26.399 E12.37282
G1 X-12.594 Y26.331 E12.45306
G1 X-16.641 Y25.606 E12.84087
G1 X-20.472 Y24.114 E13.22868
G1 X-23.942 Y21.909 E13.61649
G1 X-26.921 Y19.075 E14.00431
G1 X-29.296 Y15.720 E14.39212
G1 X-31.412 Y10.502 E14.92328
G1 X-31.560 Y9.927 E14.97928
G1 X-32.230 Y4.645 E15.48145
G1 X-32.230 Y-3.244 E16.22566
G1 X-32.037 Y-6.093 E16.49494
G1 X-32.003 Y-6.343 E16.51878
G1 X-31.057 Y-10.344 E16.90659
G1 X-29.951 Y-12.984 E17.17663
G1 X-29.086 Y-14.710 E17.35868
G1 X-26.896 Y-18.189 E17.74649
G1 X-24.074 Y-21.179 E18.13431
G1 X-20.228 Y-23.848 E18.57595
G1 X-20.102 Y-23.916 E18.58941
G1 X-16.313 Y-25.512 E18.97723
G1 X-12.287 Y-26.345 E19.36504
G1 X-10.027 Y-26.466 E19.57855
G1 X-0.060 Y-26.466 E20.51871
G1 X-0.060 Y-25.877 F7200.000
G1 X9.744 Y-25.877 E21.44355 F1350.000
G1 X11.498 Y-25.844 E21.60901 F1350.000
G1 X15.522 Y-25.357 E21.99138
G1 X19.373 Y-24.091 E22.37374
G1 X22.901 Y-22.095 E22.75611
G1 X25.970 Y-19.446 E23.13848
G1 X28.460 Y-16.248 E23.52084
G1 X30.275 Y-12.623 E23.90321
G1 X31.346 Y-8.714 E24.28558
G1 X31.637 Y-5.283 E24.61031
G1 X31.640 Y2.624 E25.35619
G1 X31.573 Y4.396 E25.52348
G1 X30.943 Y8.400 E25.90584
G1 X29.424 Y12.441 E26.31305
G1 X28.419 Y14.446 E26.52453
G1 X26.255 Y17.873 E26.90690
G1 X23.461 Y20.810 E27.28926
G1 X20.146 Y23.143 E27.67163
G1 X14.606 Y25.290 E28.23210
G1 X14.310 Y25.358 E28.26082
G1 X9.716 Y25.877 E28.69688
G1 X-10.055 Y25.877 E30.56187
G1 X-11.699 Y25.811 E30.71705
G1 X-12.547 Y25.744 E30.79728
G1 X-16.536 Y25.024 E31.17965
G1 X-20.307 Y23.536 E31.56201
G1 X-23.713 Y21.339 E31.94438
G1 X-26.623 Y18.517 E32.32674
G1 X-28.923 Y15.179 E32.70911
G1 X-30.842 Y10.355 E33.19888
G1 X-30.990 Y9.780 E33.25488
G1 X-31.640 Y4.645 E33.74307
G1 X-31.640 Y-3.244 E34.48728
G1 X-31.453 Y-6.013 E34.74908
G1 X-31.419 Y-6.264 E34.77291
G1 X-30.481 Y-10.207 E35.15528
G1 X-29.424 Y-12.720 E35.41245
G1 X-28.559 Y-14.446 E35.59450
G1 X-26.395 Y-17.873 E35.97687
G1 X-23.601 Y-20.810 E36.35924
G1 X-19.947 Y-23.330 E36.77792
G1 X-19.822 Y-23.398 E36.79138
G1 X-16.084 Y-24.966 E37.17375
G1 X-12.111 Y-25.771 E37.55612
G1 X-10.027 Y-25.877 E37.75297
G1 X-0.120 Y-25.877 E38.68747
G1 E36.68747 F2400.00000
G92 E0
G1 Z2.330 F7200.000
G1 X-0.120 Y-8.859 F7200.000
G1 Z0.330 F7200.000
G1 E2.00000 F2400.00000
G1 X10.036 Y-8.859 E2.95796 F1350.000
G1 X10.162 Y-8.887 E2.97016
G1 X10.518 Y-9.053 E3.00726
G1 X13.218 Y-8.416 E3.26894
G1 X14.617 Y-6.651 E3.48141 F1350.000
G1 X14.622 Y-2.412 E3.88121
G1 X14.579 Y-2.037 E3.91684
G1 X14.506 Y-1.729 E3.94665
G1 X14.565 Y-1.466 E3.97212
G1 X14.622 Y-1.394 E3.98082
G1 X14.622 Y2.851 E4.38120
G1 X14.578 Y3.225 E4.41674
G1 X14.474 Y3.667 E4.45955
G1 X14.345 Y4.021 E4.49509
G1 X12.307 Y8.088 E4.92420
G1 X9.759 Y8.934 E5.17743
G1 X9.473 Y8.791 E5.20759
G1 X9.253 Y8.770 E5.22842
G1 X8.942 Y8.859 E5.25889
G1 X-9.537 Y8.859 E7.00204
G1 X-9.923 Y8.953 E7.03954
G1 X-11.288 Y8.742 E7.16979
G1 X-13.597 Y7.252 E7.42904
G1 X-14.305 Y6.285 E7.54204
G1 X-14.687 Y4.886 E7.67887
G1 X-14.561 Y3.619 E7.79899
G1 X-14.622 Y3.411 E7.81944
G1 X-14.622 Y-0.841 E8.22053
G1 X-14.578 Y-1.216 E8.25607
G1 X-14.474 Y-1.657 E8.29888
G1 X-14.359 Y-1.974 E8.33065
G1 X-14.356 Y-2.173 E8.34942
G1 X-14.845 Y-3.644 E8.49567
G1 X-12.975 Y-7.375 E8.88929
G1 X-12.366 Y-8.040 E8.97437
G1 X-11.439 Y-8.612 E9.07711
G1 X-10.572 Y-8.859 E9.16219
G1 X-0.180 Y-8.859 E10.14240
G1 X-0.180 Y-8.269 F7200.000
G1 X10.166 Y-8.269 E11.11837 F1350.000
G1 X10.293 Y-8.297 E11.13057
G1 X10.582 Y-8.433 E11.16071
G1 X12.884 Y-7.890 E11.38376 F1350.000
G1 X14.028 Y-6.445 E11.55759
G1 X14.033 Y-2.446 E11.93484
G1 X13.997 Y-2.139 E11.96399
G1 X13.864 Y-1.642 E12.01254
G1 X13.913 Y-1.339 E12.04143
G1 X14.033 Y-1.189 E12.05954
G1 X14.033 Y2.817 E12.43737
G1 X13.997 Y3.123 E12.46645
G1 X13.908 Y3.498 E12.50279
G1 X13.803 Y3.788 E12.53188
G1 X11.889 Y7.606 E12.93473
G1 X9.805 Y8.298 E13.14192
G1 X9.533 Y8.162 E13.17065
G1 X9.313 Y8.141 E13.19148
G1 X8.861 Y8.269 E13.23582
G1 X-9.616 Y8.269 E14.97868
G1 X-9.957 Y8.352 E15.01178
G1 X-11.074 Y8.179 E15.11835
G1 X-13.186 Y6.816 E15.35549
G1 X-13.765 Y6.025 E15.44794
G1 X-14.090 Y4.836 E15.56423
G1 X-13.993 Y3.860 E15.65668
G1 X-13.896 Y3.668 E15.67701
G1 X-13.931 Y3.326 E15.70939
G1 X-14.033 Y3.198 E15.72479
G1 X-14.033 Y-0.807 E16.10261
G1 X-13.997 Y-1.113 E16.13169
G1 X-13.908 Y-1.488 E16.16804
G1 X-13.740 Y-1.904 E16.21029
G1 X-13.723 Y-2.137 E16.23240
G1 X-14.209 Y-3.598 E16.37763
G1 X-12.485 Y-7.037 E16.74050
G1 X-11.987 Y-7.582 E16.81011
G1 X-11.199 Y-8.068 E16.89738
G1 X-10.490 Y-8.269 E16.96699
G1 X-0.240 Y-8.269 E17.93381
G1 X-0.240 Y-7.680 F7200.000
G1 X10.297 Y-7.680 E18.92779 F1350.000
G1 X10.424 Y-7.708 E18.93998
G1 X10.646 Y-7.812 E18.96316
G1 X12.549 Y-7.363 E19.14758
G1 X13.439 Y-6.240 E19.28278 F1350.000
G1 X13.444 Y-2.480 E19.63747
G1 X13.416 Y-2.241 E19.66015
G1 X13.343 Y-1.932 E19.69010
G1 X13.199 Y-1.534 E19.73003
G1 X13.247 Y-1.232 E19.75893
G1 X13.443 Y-0.984 E19.78871
G1 X13.443 Y2.782 E20.14397
G1 X13.416 Y3.021 E20.16659
G1 X13.343 Y3.329 E20.19648
G1 X13.261 Y3.554 E20.21910
G1 X11.472 Y7.123 E20.59570
G1 X9.851 Y7.662 E20.75685
G1 X9.592 Y7.532 E20.78415
G1 X9.372 Y7.512 E20.80498
G1 X8.779 Y7.680 E20.86317
G1 X-9.522 Y7.680 E22.58946
G1 X-9.669 Y7.662 E22.60341
G1 X-9.991 Y7.750 E22.63491
G1 X-10.860 Y7.616 E22.71780
G1 X-12.775 Y6.380 E22.93282
G1 X-13.225 Y5.765 E23.00473
G1 X-13.493 Y4.786 E23.10047
G1 X-13.417 Y4.027 E23.17238
G1 X-13.201 Y3.596 E23.21781
G1 X-13.236 Y3.255 E23.25019
G1 X-13.443 Y2.993 E23.28165
G1 X-13.443 Y-0.773 E23.63692
G1 X-13.416 Y-1.011 E23.65954
G1 X-13.343 Y-1.319 E23.68942
G1 X-13.261 Y-1.545 E23.71204
G1 X-13.104 Y-1.858 E23.74506
G1 X-13.087 Y-2.091 E23.76717
G1 X-13.572 Y-3.553 E23.91240
G1 X-11.995 Y-6.700 E24.24452
G1 X-11.607 Y-7.124 E24.29866
G1 X-10.960 Y-7.523 E24.37046
G1 X-10.408 Y-7.680 E24.42460
G1 X-0.300 Y-7.680 E25.37803
G1 X-0.300 Y-7.091 F7200.000
G1 X0.041 Y-7.041 E25.41058 F1350.000
G1 X0.219 Y-7.091 E25.42801
G1 X2.403 Y-7.091 E25.63401
G1 X2.445 Y-7.068 E25.63852
G1 X2.678 Y-7.041 E25.66063
G1 X2.855 Y-7.091 E25.67806
G1 X5.039 Y-7.091 E25.88406
G1 X5.081 Y-7.068 E25.88857
G1 X5.314 Y-7.041 E25.91068
G1 X5.491 Y-7.091 E25.92811
G1 X7.675 Y-7.091 E26.13411
G1 X7.717 Y-7.068 E26.13862
G1 X7.950 Y-7.041 E26.16073
G1 X8.128 Y-7.091 E26.17816
G1 X10.428 Y-7.091 E26.39517
G1 X10.554 Y-7.119 E26.40737
G1 X10.710 Y-7.192 E26.42357
G1 X12.214 Y-6.837 E26.56936 F1350.000
G1 X12.850 Y-6.034 E26.66594
G1 X12.854 Y-2.513 E26.99807
G1 X12.777 Y-2.101 E27.03768
G1 X12.719 Y-1.939 E27.05388
G1 X12.507 Y-1.516 E27.09856
G1 X12.542 Y-1.174 E27.13094
G1 X12.854 Y-0.779 E27.17846
G1 X12.854 Y2.748 E27.51118
G1 X12.834 Y2.918 E27.52733
G1 X12.719 Y3.321 E27.56684
G1 X11.054 Y6.641 E27.91720
G1 X9.896 Y7.026 E28.03230
G1 X9.567 Y6.861 E28.06710
G1 X9.260 Y6.874 E28.09601
G1 X9.091 Y6.979 E28.11481
G1 X8.697 Y7.091 E28.15348
G1 X6.513 Y7.091 E28.35948
G1 X6.471 Y7.068 E28.36399
G1 X6.238 Y7.041 E28.38610
G1 X6.060 Y7.091 E28.40353
G1 X3.876 Y7.091 E28.60953
G1 X3.835 Y7.068 E28.61404
G1 X3.602 Y7.041 E28.63615
G1 X3.424 Y7.091 E28.65357
G1 X1.240 Y7.091 E28.85958
G1 X1.199 Y7.068 E28.86408
G1 X0.966 Y7.041 E28.88619
G1 X0.788 Y7.091 E28.90362
G1 X-1.396 Y7.091 E29.10962
G1 X-1.438 Y7.068 E29.11413
G1 X-1.670 Y7.041 E29.13624
G1 X-1.848 Y7.091 E29.15367
G1 X-4.032 Y7.091 E29.35967
G1 X-4.074 Y7.068 E29.36418
G1 X-4.307 Y7.041 E29.38629
G1 X-4.484 Y7.091 E29.40372
G1 X-6.668 Y7.091 E29.60972
G1 X-6.710 Y7.068 E29.61423
G1 X-6.943 Y7.041 E29.63634
G1 X-7.120 Y7.091 E29.65377
G1 X-9.304 Y7.091 E29.85977
G1 X-9.363 Y7.058 E29.86606
G1 X-9.592 Y7.031 E29.88788
G1 X-10.025 Y7.149 E29.93023
G1 X-10.646 Y7.053 E29.98943
G1 X-12.364 Y5.944 E30.18234
G1 X-12.686 Y5.505 E30.23370
G1 X-12.895 Y4.736 E30.30890
G1 X-12.842 Y4.194 E30.36026
G1 X-12.507 Y3.525 E30.43080
G1 X-12.542 Y3.184 E30.46318
G1 X-12.854 Y2.789 E30.51070
G1 X-12.854 Y-0.739 E30.84342
G1 X-12.777 Y-1.150 E30.88293
G1 X-12.719 Y-1.311 E30.89908
G1 X-12.468 Y-1.812 E30.95190
G1 X-12.451 Y-2.046 E30.97401
G1 X-12.936 Y-3.507 E31.11924
G1 X-11.505 Y-6.363 E31.42059
G1 X-11.228 Y-6.665 E31.45927
G1 X-10.720 Y-6.979 E31.51561
G1 X-10.326 Y-7.091 E31.55428
G1 X-8.142 Y-7.091 E31.76028
G1 X-8.100 Y-7.068 E31.76479
G1 X-7.867 Y-7.041 E31.78690
G1 X-7.689 Y-7.091 E31.80432
G1 X-5.505 Y-7.091 E32.01033
G1 X-5.464 Y-7.068 E32.01483
G1 X-5.231 Y-7.041 E32.03694
G1 X-5.053 Y-7.091 E32.05437
G1 X-2.869 Y-7.091 E32.26037
G1 X-2.828 Y-7.068 E32.26488
G1 X-2.595 Y-7.041 E32.28699
G1 X-2.417 Y-7.091 E32.30442
G1 X-0.360 Y-7.091 E32.49846
G1 X-0.386 Y-6.502 F7200.000
G1 X-0.265 Y-6.434 E32.51153 F1350.000
G1 X-0.033 Y-6.407 E32.53364
G1 X0.301 Y-6.502 E32.56636
G1 X2.250 Y-6.502 E32.75017
G1 X2.371 Y-6.434 E32.76325
G1 X2.604 Y-6.407 E32.78536
G1 X2.937 Y-6.502 E32.81807
G1 X4.886 Y-6.502 E33.00189
G1 X5.007 Y-6.434 E33.01496
G1 X5.240 Y-6.407 E33.03707
G1 X5.573 Y-6.502 E33.06979
G1 X7.522 Y-6.502 E33.25360
G1 X7.643 Y-6.434 E33.26668
G1 X7.876 Y-6.407 E33.28879
G1 X8.210 Y-6.502 E33.32150
G1 X10.158 Y-6.502 E33.50532
G1 X10.232 Y-6.461 E33.51327
G1 X10.516 Y-6.451 E33.54006
G1 X10.774 Y-6.571 E33.56696
G1 X11.880 Y-6.310 E33.67412
G1 X12.261 Y-5.829 E33.73206 F1350.000
G1 X12.265 Y-2.547 E34.04164
G1 X12.177 Y-2.172 E34.07795
G1 X11.812 Y-1.444 E34.15477
G1 X11.847 Y-1.103 E34.18715
G1 X12.265 Y-0.574 E34.25073
G1 X12.265 Y2.714 E34.56089
G1 X12.177 Y3.087 E34.59711
G1 X10.637 Y6.159 E34.92121
G1 X9.942 Y6.390 E34.99027
G1 X9.537 Y6.187 E35.03305
G1 X9.231 Y6.200 E35.06196
G1 X8.851 Y6.435 E35.10403
G1 X8.615 Y6.502 E35.12723
G1 X6.666 Y6.502 E35.31104
G1 X6.545 Y6.434 E35.32412
G1 X6.312 Y6.407 E35.34623
G1 X5.978 Y6.502 E35.37894
G1 X4.030 Y6.502 E35.56276
G1 X3.909 Y6.434 E35.57583
G1 X3.676 Y6.407 E35.59794
G1 X3.342 Y6.502 E35.63066
G1 X1.394 Y6.502 E35.81447
G1 X1.272 Y6.434 E35.82755
G1 X1.040 Y6.407 E35.84966
G1 X0.706 Y6.502 E35.88237
G1 X-1.243 Y6.502 E36.06619
G1 X-1.364 Y6.434 E36.07926
G1 X-1.596 Y6.407 E36.10137
G1 X-1.930 Y6.502 E36.13409
G1 X-3.879 Y6.502 E36.31790
G1 X-4.000 Y6.434 E36.33098
G1 X-4.233 Y6.407 E36.35309
G1 X-4.566 Y6.502 E36.38580
G1 X-6.515 Y6.502 E36.56962
G1 X-6.636 Y6.434 E36.58269
G1 X-6.869 Y6.407 E36.60480
G1 X-7.202 Y6.502 E36.63752
G1 X-9.151 Y6.502 E36.82133
G1 X-9.286 Y6.427 E36.83586
G1 X-9.515 Y6.399 E36.85768
G1 X-10.059 Y6.547 E36.91088
G1 X-10.432 Y6.490 E36.94641
G1 X-11.953 Y5.508 E37.11720
G1 X-12.146 Y5.244 E37.14802
G1 X-12.298 Y4.685 E37.20267
G1 X-12.266 Y4.360 E37.23349
G1 X-11.812 Y3.454 E37.32913
G1 X-11.847 Y3.112 E37.36151
G1 X-12.265 Y2.584 E37.42509
G1 X-12.265 Y-0.704 E37.73525
G1 X-12.177 Y-1.078 E37.77147
G1 X-11.633 Y-2.162 E37.88580
G1 X-11.787 Y-2.625 E37.93184
G1 X-12.069 Y-2.766 E37.96160
G1 X-12.300 Y-3.461 E38.03066
G1 X-11.015 Y-6.026 E38.30127
G1 X-10.849 Y-6.207 E38.32447
G1 X-10.480 Y-6.435 E38.36534
G1 X-10.244 Y-6.502 E38.38854
G1 X-8.295 Y-6.502 E38.57236
G1 X-8.174 Y-6.434 E38.58543
G1 X-7.941 Y-6.407 E38.60754
G1 X-7.607 Y-6.502 E38.64026
G1 X-5.659 Y-6.502 E38.82407
G1 X-5.538 Y-6.434 E38.83715
G1 X-5.305 Y-6.407 E38.85926
G1 X-4.971 Y-6.502 E38.89197
G1 X-3.023 Y-6.502 E39.07579
G1 X-2.901 Y-6.434 E39.08886
G1 X-2.669 Y-6.407 E39.11097
G1 X-2.335 Y-6.502 E39.14369
G1 X-0.446 Y-6.502 E39.32184
G1 X-0.540 Y-5.913 F7200.000
G1 X-0.240 Y-5.745 E39.35426 F1350.000
G1 X0.081 Y-5.752 E39.38448
G1 X0.304 Y-5.890 E39.40925
G1 X0.383 Y-5.913 E39.41698
G1 X2.097 Y-5.913 E39.57861
G1 X2.397 Y-5.745 E39.61102
G1 X2.717 Y-5.752 E39.64125
G1 X2.940 Y-5.890 E39.66602
G1 X3.019 Y-5.913 E39.67375
G1 X4.733 Y-5.913 E39.83538
G1 X5.033 Y-5.745 E39.86779
G1 X5.353 Y-5.752 E39.89801
G1 X5.577 Y-5.890 E39.92278
G1 X5.655 Y-5.913 E39.93052
G1 X7.369 Y-5.913 E40.09214
G1 X7.669 Y-5.745 E40.12456
G1 X7.989 Y-5.752 E40.15478
G1 X8.213 Y-5.890 E40.17955
G1 X8.292 Y-5.913 E40.18728
G1 X10.005 Y-5.913 E40.34891
G1 X10.208 Y-5.799 E40.37085
G1 X10.492 Y-5.789 E40.39764
G1 X10.838 Y-5.951 E40.43367
G1 X11.545 Y-5.784 E40.50220 F1350.000
G1 X11.672 Y-5.623 E40.52152
G1 X11.672 Y-2.547 E40.81176
G1 X11.635 Y-2.406 E40.82550
G1 X10.991 Y-1.122 E40.96099
G1 X11.232 Y-0.605 E41.01479
G1 X11.549 Y-0.530 E41.04546
G1 X11.676 Y-0.369 E41.06478
G1 X11.676 Y2.680 E41.35239
G1 X11.635 Y2.854 E41.36930
G1 X10.220 Y5.677 E41.66715
G1 X9.988 Y5.754 E41.69017
G1 X9.420 Y5.469 E41.75016
G1 X9.031 Y5.541 E41.78743
G1 X8.841 Y5.749 E41.81403
G1 X8.611 Y5.890 E41.83944
G1 X8.533 Y5.913 E41.84717
G1 X6.819 Y5.913 E42.00880
G1 X6.519 Y5.745 E42.04121
G1 X6.199 Y5.752 E42.07144
G1 X5.975 Y5.890 E42.09621
G1 X5.896 Y5.913 E42.10394
G1 X4.183 Y5.913 E42.26557
G1 X3.883 Y5.745 E42.29798
G1 X3.563 Y5.752 E42.32820
G1 X3.339 Y5.890 E42.35297
G1 X3.260 Y5.913 E42.36071
G1 X1.547 Y5.913 E42.52233
G1 X1.247 Y5.745 E42.55475
G1 X0.926 Y5.752 E42.58497
G1 X0.703 Y5.890 E42.60974
G1 X0.624 Y5.913 E42.61747
G1 X-1.089 Y5.913 E42.77910
G1 X-1.390 Y5.745 E42.81151
G1 X-1.710 Y5.752 E42.84174
G1 X-1.933 Y5.890 E42.86651
G1 X-2.012 Y5.913 E42.87424
G1 X-3.726 Y5.913 E43.03587
G1 X-4.026 Y5.745 E43.06828
G1 X-4.346 Y5.752 E43.09850
G1 X-4.569 Y5.890 E43.12327
G1 X-4.648 Y5.913 E43.13101
G1 X-6.362 Y5.913 E43.29263
G1 X-6.662 Y5.745 E43.32505
G1 X-6.982 Y5.752 E43.35527
G1 X-7.206 Y5.890 E43.38004
G1 X-7.284 Y5.913 E43.38777
G1 X-8.998 Y5.913 E43.54940
G1 X-9.273 Y5.759 E43.57911
G1 X-9.635 Y5.791 E43.61335
G1 X-9.688 Y5.835 E43.61989
G1 X-10.093 Y5.946 E43.65952
G1 X-10.218 Y5.927 E43.67136
G1 X-11.542 Y5.072 E43.82004
G1 X-11.606 Y4.984 E43.83031
G1 X-11.701 Y4.635 E43.86441
G1 X-11.691 Y4.527 E43.87469
G1 X-10.991 Y3.131 E44.02197
G1 X-11.232 Y2.614 E44.07577
G1 X-11.549 Y2.539 E44.10643
G1 X-11.676 Y2.379 E44.12576
G1 X-11.676 Y-0.670 E44.41336
G1 X-11.635 Y-0.845 E44.43027
G1 X-10.843 Y-2.424 E44.59695
G1 X-10.997 Y-2.887 E44.64299
G1 X-11.587 Y-3.183 E44.70531
G1 X-11.664 Y-3.415 E44.72833
G1 X-10.525 Y-5.688 E44.96818
G1 X-10.470 Y-5.749 E44.97591
G1 X-10.240 Y-5.890 E45.00132
G1 X-10.162 Y-5.913 E45.00905
G1 X-8.448 Y-5.913 E45.17068
G1 X-8.148 Y-5.745 E45.20309
G1 X-7.828 Y-5.752 E45.23332
G1 X-7.604 Y-5.890 E45.25808
G1 X-7.525 Y-5.913 E45.26582
G1 X-5.812 Y-5.913 E45.42745
G1 X-5.512 Y-5.745 E45.45986
G1 X-5.192 Y-5.752 E45.49008
G1 X-4.968 Y-5.890 E45.51485
G1 X-4.889 Y-5.913 E45.52259
G1 X-3.176 Y-5.913 E45.68421
G1 X-2.876 Y-5.745 E45.71663
G1 X-2.555 Y-5.752 E45.74685
G1 X-2.332 Y-5.890 E45.77162
G1 X-2.253 Y-5.913 E45.77935
G1 X-0.600 Y-5.913 E45.93532
G1 E43.93532 F2400.00000
G92 E0
G1 Z2.330 F7200.000
G1 X-11.051 Y-3.244 F7200.000
G1 Z0.330 F7200.000
G1 E2.00000 F2400.00000
G1 X-10.027 Y-5.288 E2.21564 F1350.000
G1 X-8.709 Y-5.288 E2.33997
G1 X-11.051 Y-0.614 E2.83309
G1 X-11.051 Y2.015 E3.08116
